X: 359
T: May be I will
C: anon.
O: Ireland
B: Francis O'Neill: "The Dance Music of Ireland" (1907) no. 359
R: Double jig
Z: Transcribed by Frank Nordberg - http://www.musicaviva.com
F: http://www.musicaviva.com/abc/tunes/ireland/oneill-1001/oneill-1001-035
9.abc
M: 6/8
L: 1/8
K: G
c|BcA GB(G|E)DE G2A|BAG GB(d|e)cA (Ad)c|BcA GE(G|D)EF (GB)c|dge dB(A|B)GG
 G2:|
|:D|GBc dB(A|B)dd d(ef)|gfe dB(G|A)GA (BG)E|GAG g2g|fed (gf)e|dBG cB(A|B)
GG G2:|
W:
W:
W: From Musica Viva - http://www.musicaviva.com
W: the Internet center for free sheet music downloads.


